qdrant-landing/themes/qdrant-2024/static/img/home/hero/rust-icon.svg

<svg preserveAspectRatio="none" width="100%" height="100%" overflow="visible" style="display: block;" viewBox="0 0 16 16" fill="none" xmlns="http://www.w3.org/2000/svg">
<g id="brand-rust">
<path id="Subtract" d="M8.66696 8.4443L8.75485 8.44821C8.95821 8.46842 9.15005 8.55835 9.29587 8.70407C9.46241 8.87075 9.55661 9.09735 9.55661 9.33298C9.55661 9.80445 9.74375 10.2564 10.0771 10.5898C10.4105 10.923 10.8626 11.1103 11.334 11.1103H12.4697C12.4969 11.1802 12.5281 11.249 12.5673 11.3134C13.2638 12.456 11.9557 13.7648 10.8125 13.0683C10.6408 12.9638 10.4464 12.9012 10.2461 12.8857C10.0459 12.8703 9.84466 12.9026 9.65915 12.9795C9.47359 13.0564 9.30837 13.1756 9.1777 13.3281C9.04705 13.4806 8.95469 13.6622 8.90719 13.8574C8.59185 15.1574 6.74109 15.1574 6.42575 13.8574C6.3784 13.6622 6.28579 13.4807 6.15524 13.3281C6.02459 13.1754 5.8594 13.0555 5.67379 12.9785C5.48807 12.9015 5.28635 12.8693 5.0859 12.8847C4.88543 12.9002 4.69121 12.9627 4.5195 13.0674C3.37681 13.764 2.06794 12.4558 2.76462 11.3125C2.85013 11.172 2.90511 11.0161 2.93161 10.8545C3.00255 11.0055 3.15598 11.1103 3.33395 11.1103H6.00094C6.24605 11.1099 6.44528 10.9112 6.44528 10.666C6.4451 10.4209 6.24594 10.2221 6.00094 10.2216H5.77829V8.4443H8.66696ZM2.94137 5.53805C3.01562 5.67975 3.16284 5.77731 3.33395 5.77731H4.88962V10.2216H3.33395C3.15964 10.2216 3.00928 10.3226 2.93649 10.4687C2.92145 10.3629 2.89468 10.2586 2.85348 10.1591C2.77657 9.97354 2.65647 9.8084 2.50387 9.6777C2.35133 9.54715 2.16968 9.45463 1.97458 9.40719C0.675073 9.09163 0.675115 7.24136 1.97458 6.92575C2.16994 6.87841 2.3521 6.78591 2.50485 6.65524C2.65754 6.52458 2.77746 6.35942 2.85446 6.1738C2.93143 5.98808 2.96368 5.78634 2.94821 5.5859C2.94697 5.56987 2.94321 5.554 2.94137 5.53805ZM6.42575 2.47458C6.74135 1.17511 8.59163 1.17508 8.90719 2.47458C8.95455 2.66999 9.04697 2.85208 9.1777 3.00485C9.30842 3.1576 9.47342 3.27747 9.65915 3.35446C9.8449 3.43145 10.0466 3.46273 10.247 3.44723C10.4474 3.43171 10.6418 3.36919 10.8134 3.26462C11.956 2.56861 13.2649 3.8773 12.5683 5.02048C12.4639 5.19201 12.4012 5.3857 12.3857 5.5859C12.3702 5.78625 12.4025 5.98815 12.4795 6.1738C12.5563 6.35911 12.6758 6.5237 12.8281 6.65426C12.9806 6.78492 13.1622 6.87826 13.3574 6.92575C14.6574 7.24108 14.6574 9.09186 13.3574 9.40719C13.1622 9.45456 12.9808 9.54711 12.8281 9.6777C12.6754 9.8084 12.5555 9.97346 12.4785 10.1591C12.4701 10.1795 12.4643 10.201 12.457 10.2216H11.334C11.0984 10.2216 10.8717 10.1284 10.705 9.96188C10.5384 9.79519 10.4453 9.56869 10.4453 9.33298C10.4453 8.94782 10.3183 8.57661 10.0908 8.27145C10.2741 8.185 10.4447 8.06978 10.5908 7.9238C10.924 7.59042 11.1123 7.13737 11.1123 6.66598C11.1122 6.19471 10.924 5.74244 10.5908 5.40915C10.2575 5.076 9.80517 4.88877 9.33395 4.88864H3.33395C3.0987 4.88864 2.90717 5.07141 2.89157 5.3027C2.86063 5.204 2.81881 5.10844 2.76462 5.0195C2.06835 3.8769 3.37722 2.56801 4.52047 3.26462C4.69189 3.36925 4.88569 3.43158 5.0859 3.44723C5.28632 3.46284 5.48807 3.43139 5.67379 3.35446C5.85953 3.27751 6.02456 3.15763 6.15524 3.00485C6.28592 2.85207 6.37853 2.67 6.42575 2.47458ZM9.33395 5.77731C9.56953 5.77744 9.79627 5.87147 9.96286 6.03805C10.1292 6.20463 10.2225 6.4306 10.2226 6.66598C10.2226 6.90156 10.1293 7.12822 9.96286 7.29489C9.79627 7.46147 9.56953 7.5555 9.33395 7.55563H5.77829V5.77731H9.33395Z" fill="var(--fill-0, #D4D9E6)"/>
</g>
</svg>

<svg xmlns="http://www.w3.org/2000/svg" fill="none" overflow="visible" preserveAspectRatio="none" style="display:block" viewBox="0 0 16 16"><path fill="var(--fill-0, #d4d9e6)" d="m8.667 8.444.088.004a.89.89 0 0 1 .802.885 1.777 1.777 0 0 0 1.777 1.777h1.136q.04.106.097.203c.697 1.143-.611 2.452-1.755 1.755a1.28 1.28 0 0 0-1.634.26 1.3 1.3 0 0 0-.27.53c-.316 1.3-2.167 1.3-2.482 0a1.278 1.278 0 0 0-1.907-.79c-1.142.696-2.451-.612-1.754-1.755a1.3 1.3 0 0 0 .167-.459c.07.152.224.256.402.256H6a.445.445 0 0 0 0-.888h-.223V8.444zM2.941 5.538c.075.142.222.24.393.24H4.89v4.444H3.334a.44.44 0 0 0-.398.247 1.28 1.28 0 0 0-.962-1.062c-1.299-.315-1.299-2.166 0-2.481a1.28 1.28 0 0 0 .974-1.34zm3.485-3.063c.315-1.3 2.166-1.3 2.481 0a1.28 1.28 0 0 0 .752.88 1.28 1.28 0 0 0 1.154-.09c1.143-.696 2.452.612 1.755 1.755a1.277 1.277 0 0 0 .79 1.906c1.3.315 1.3 2.166 0 2.481a1.28 1.28 0 0 0-.88.752l-.021.063h-1.123a.89.89 0 0 1-.889-.889c0-.385-.127-.756-.354-1.062.183-.086.354-.201.5-.347a1.78 1.78 0 0 0-1.257-3.035h-6a.443.443 0 0 0-.442.414 1.3 1.3 0 0 0-.127-.284c-.697-1.142.612-2.451 1.755-1.754a1.276 1.276 0 0 0 1.906-.79m2.908 3.302a.89.89 0 0 1 .889.889.89.89 0 0 1-.89.89H5.779V5.777z"/></svg>
